packages/icons/src/pod.svg

<svg viewBox="0 0 24 24" fill="none" xmlns="http://www.w3.org/2000/svg">
<path fill-rule="evenodd" clip-rule="evenodd" d="M12.2972 3.73363C12.1404 3.64036 11.9453 3.63987 11.7881 3.73233L5.37293 7.50485L11.9677 11.4158L18.6286 7.50044L12.2972 3.73363ZM19.1108 8.37693L12.4666 12.2826V19.8902L18.8623 16.169C19.0162 16.0795 19.1108 15.9149 19.1108 15.7369V8.37693ZM11.4666 19.8863V12.2813L4.88965 8.38087V15.7394C4.88965 15.9168 4.98359 16.0809 5.13654 16.1706L11.4666 19.8863ZM11.2812 2.87033C11.7529 2.59294 12.3382 2.59443 12.8085 2.87422L19.8665 7.07333C20.018 7.16347 20.1108 7.32674 20.1108 7.50303V15.7369C20.1108 16.271 19.8268 16.7648 19.3652 17.0334L12.218 21.1917C12.062 21.2825 11.8692 21.2821 11.7135 21.1907L4.63032 17.033C4.17148 16.7637 3.88965 16.2715 3.88965 15.7394V7.50303C3.88965 7.32583 3.98344 7.16186 4.13619 7.07203L11.2812 2.87033Z" fill="#4F5162"/>
</svg>

<svg viewBox="0 0 24 24" fill="none" xmlns="http://www.w3.org/2000/svg"><path fill-rule="evenodd" clip-rule="evenodd" d="M12.297 3.734a.5.5 0 0 0-.509-.002L5.373 7.505l6.595 3.91 6.66-3.915-6.33-3.766Zm6.814 4.643-6.644 3.906v7.607l6.395-3.721a.5.5 0 0 0 .249-.432v-7.36Zm-7.644 11.51V12.28l-6.577-3.9v7.358a.5.5 0 0 0 .247.432l6.33 3.715ZM11.28 2.87a1.5 1.5 0 0 1 1.527.004l7.058 4.2a.5.5 0 0 1 .245.429v8.234a1.5 1.5 0 0 1-.746 1.296l-7.147 4.159a.5.5 0 0 1-.505-.001L4.63 17.033a1.5 1.5 0 0 1-.74-1.294V7.503a.5.5 0 0 1 .246-.431l7.145-4.202Z" fill="#4F5162"/></svg>
